!!!COM: Mozart
!!!OTL: 9 Variationen uber ein Minuett von Duport
!!!Variation: Variation 9 g
**function	**harm	**kern	**kern
*	*	*clefG2	*clefG2
*	*	*k[f#c#]	*k[f#c#]
*M3/4	*M3/4	*M3/4	*M3/4
*D:	*D:	*D:	*D
=270	=270	=270	=270
2.T	2.I	4d 4f#	(8aa'L
.	.	.	8aa#'J
.	.	4r	8bb'L
.	.	.	8ccc#'J)
.	.	4r	(8eeeL
.	.	.	16dddJk)
.	.	.	16r
=271	=271	=271	=271
2.T	2.I	4d 4a	(8ee#'L
.	.	.	8ff#'J
.	.	4r	8gg'L
.	.	.	8gg#'J)
.	.	4r	(8bbL
.	.	.	16aaJk)
.	.	.	16r
=272	=272	=272	=272
*	*	*^	*
2D	2Cc	(8f#L	2.A	(8.aaL
.	.	8aJ	.	.
.	.	.	.	16ddJk)
.	.	8f#L	.	8dd
.	.	8aJ	.	8r
4D	4V7	8c#L 8g	.	(16eeLL
.	.	.	.	16dd
.	.	8aJ	.	16ee
.	.	.	.	16ff#JJ)
=273	=273	=273	=273	=273
2.T	2.I	4f#)	4d	4dd
.	.	4r	4r	16r
.	.	.	.	16ddd'LL
.	.	.	.	16ccc#'
.	.	.	.	16bb'JJ
.	.	4r	4r	16aa'LL
.	.	.	.	16gg'
.	.	.	.	16ff#'
.	.	.	.	16ee'JJ
=274	=274	=274	=274	=274
2T	2Ic	(8f#L	2.A	4dd
.	.	8aJ	.	.
.	.	8f#L	.	4dd
.	.	8aJ	.	.
4T	4V7	8c#L 8g	.	(16.eeLL
.	.	.	.	32ddk
.	.	8aJ	.	16ee
.	.	.	.	16ff#JJ
=275	=275	=275	=275	=275
2.T	2.I	4f#)	4d	4dd)
.	.	4r	4r	16r
.	.	.	.	(32dddLLL
.	.	.	.	32ccc#JJ
.	.	.	.	32bbLL
.	.	.	.	32aa
.	.	.	.	32gg
.	.	.	.	32ff#JJJ
.	.	4r	4r	32eeLLL
.	.	.	.	32dd
.	.	.	.	32cc#
.	.	.	.	32bJJ
.	.	.	.	32aLL
.	.	.	.	32g
.	.	.	.	32f#
.	.	.	.	32eJJJ
=276	=276	=276	=276	=276
*	*	*clefF4	*clefF4	*
2T	2Ic	(8F#L	2.AA	4d)
.	.	8AJ	.	.
.	.	8F#L	.	4d
.	.	8AJ	.	.
4T	4V7	8GL	.	(16c#LL 16e
.	.	.	.	16d
.	.	8AJ	.	16e
.	.	.	.	16f#JJ
*	*	*v	*v	*
=277	=277	=277	=277
2T	2I	4F#) 4D	4d)
.	.	4r	4r
4T	4V	4AA 4A	4ee 4ccc#
=278	=278	=278	=278
2.T	2.I	4DD 4D	4dd 4ff# 4ddd
.	.	4r	4r
.	.	4r	4r
==	==	==	==
*-	*-	*-	*-
